X:582
T:Jock Wilson's Ball
C:Joe Buchanan's Scottish Tome - Page 159.3
I:159 3
Z:Carl Allison
R:Reel
L:1/8
M:4/4
K:D
((3ABc) | "Bm"d2 c2 B2 f2 | Bcde fBBc | "Bm"d2 c2 B2 f2 | "A"AAeA cAAc :|
"D"d2 (ad) f2 (ef) | "D"d2 (ae) "Bm"fBBc | "D"d2 (ad) f2  (ef) | "A"A2 (eA) cAAc |
"D"d2 (ad) f2 (ef) | "D"d2 (ae) "Bm"fBBc | "D"defg aafa | "A"efed "A"cdec |]

